X:1
T:Repeat the Sweet Story
T:Repeat the Sweet Story
T:Pearl Johnson Sprague
T:Jonathan Burtch Atchinson, 1883
T:Public Domain Courtesy of the Cyber Hymnal™
T:Public Domain Courtesy of the Cyber Hymnal™
C:Pearl Johnson Sprague
Z:Public Domain
Z:Courtesy of the Cyber Hymnal™
%%score ( 1 2 ) ( 3 4 )
L:1/8
Q:1/4=90
M:6/8
K:Bb
V:1 treble 
V:2 treble 
V:3 bass 
V:4 bass 
V:1
 [DF] | [DF][EG][DF] [DF][B,D][DF] | [DB][FA][EG] [DF]2 [DF] | [EG][EG][EG] [FB][Fc][Fd] | %4
w: 1.~Re-|peat the sweet sto- ry of|Je- sus to me, Oh,|tell me the sto- ry once|
w: 2.~Oh,|tell me once more of His|won- der- ful love, His|good- ness and mer- cy to|
w: 3.~Oh,|tell me a- gain of the|land of the blest, Where|sor- row and sin ne- ver|
 [Fc]3- [Fc]2 [EF] | [DF][EG][DF] [DF][B,D][DF] | [DB][DA][EG] [DF]2 [FB] | %7
w: more; * Tho’|of- ten I’ve heard it, each|time it is told, ’Tis|
w: me; * When|hope- less- ly lost in the|dark- ness of sin, He|
w: come; * Where|I with the Sav- ior shall|ev- er- more dwell, Oh,|
 [FA][Fc][Fc] [Fc][FB][FA] | [FB]3- [FB]2 ||"^Refrain" [DF] | [Fd]4 [Ec][DB] | [DF]4 [DB][Fd] | %12
w: sweet- er than ev- er be-|fore. *||||
w: found me and bade me go|free. *|Oh,|tell me the|sto- ry of|
w: tell me of Hea- ven, my|home. *||||
 [Fc]4 [DB][Fc] | [Fd]3- [Fd]2 [DF] | [Fd]4 [Fc][FB] | [EG]4 [EA][EB] | [Fc]4 [FB][FA] | %17
w: |||||
w: Je- sus once|more; * ’Tis|sweet- er, yes,|sweet- er Each|time than be-|
w: |||||
 B3- [FB]2 |] %18
w: |
w: fore. *|
w: |
V:2
 x | x6 | x6 | x6 | x6 | x6 | x6 | x6 | x5 || x | x6 | x6 | x6 | x6 | x6 | x6 | x6 | FGG x2 |] %18
V:3
 [B,,B,] | [B,,B,][B,,B,][B,,B,] [B,,B,][B,,F,][B,,B,] | [B,,F,][B,,B,][B,,B,] [B,,B,]2 [B,,B,] | %3
w: ~|~ ~ ~ ~ ~ ~|~ ~ ~ ~ ~|
 [E,B,][E,B,][E,B,] [D,B,][C,A,][B,,B,] | [F,A,]3- [F,A,]2 [F,A,] | %5
w: ~ ~ ~ ~ ~ ~|~ * ~|
 [B,,B,][B,,B,][B,,B,] [B,,B,][B,,F,][B,,B,] | [B,,F,][B,,F,][B,,B,] [B,,B,]2 [D,B,] | %7
w: ~ ~ ~ ~ ~ ~|~ ~ ~ ~ ~|
 [F,C][F,A,][F,A,] [F,A,][F,D][F,C] | [B,,D]3- [B,,D]2 || [B,,B,] | %10
w: ~ ~ ~ ~ ~ ~|~ *|Oh,|
 [B,,B,][B,,B,][B,,B,] [B,,B,][B,,B,][B,,B,] | [B,,B,][B,,B,][B,,B,] [B,,B,]2 [B,,B,] | %12
w: tell me the sto- ry of|Je- sus once more, Oh,|
 [F,A,][F,A,][F,A,] [F,A,][F,B,][F,A,] | B,B,B, B,2 [B,,B,] | %14
w: tell me the sto- ry of|Je- sus once more; ’Tis|
 [B,,B,][B,,B,][B,,B,] [B,,B,][C,A,][D,B,] | [E,B,][E,B,][E,B,] [E,B,]2 [G,B,] | %16
w: sweet- er, yes, sweet- er each|time than be- fore, ’Tis|
 [F,A,][F,A,][F,A,] [F,A,][F,D][F,C] | [B,,D][B,,E][B,,E] [B,,D]2 |] %18
w: sweet- er, yes, sweet- er each|time than be- fore|
V:4
 x | x6 | x6 | x6 | x6 | x6 | x6 | x6 | x5 || x | x6 | x6 | x6 | B,B,B, B,2 x | x6 | x6 | x6 | %17
 x5 |] %18

